svgs/sharp-regular/object-intersect.svg

<svg xmlns="http://www.w3.org/2000/svg" viewBox="0 0 512 512"><!--! Font Awesome Pro 6.6.0 by @fontawesome - https://fontawesome.com License - https://fontawesome.com/license (Commercial License) Copyright 2024 Fonticons, Inc. --><path d="M96 48L48 48l0 48L0 96 0 48 0 0 48 0 96 0l0 48zm32 0l0-48 96 0 0 48-96 0zM0 128l48 0 0 96L0 224l0-96zm352 32l0 48 0 48 0 48 0 48-48 0-80 0-16 0-48 0 0-48 0-48 0-48 0-48 48 0 80 0 16 0 48 0zM160 416l48 0 0 48 48 0 0 48-48 0-48 0 0-48 0-48zM352 48l0 48-48 0 0-48-48 0 0-48 48 0 48 0 0 48zm64 160l0-48 48 0 48 0 0 48 0 48-48 0 0-48-48 0zM96 304l0 48-48 0L0 352l0-48 0-48 48 0 0 48 48 0zM288 464l96 0 0 48-96 0 0-48zm176 48l-48 0 0-48 48 0 0-48 48 0 0 48 0 48-48 0zm48-128l-48 0 0-96 48 0 0 96zM208 208l0 96 96 0 0-96-96 0z"/></svg>

<svg xmlns="http://www.w3.org/2000/svg" viewBox="0 0 512 512"><!--! Font Awesome Pro 6.5.2 by @fontawesome - https://fontawesome.com License - https://fontawesome.com/license (Commercial License) Copyright 2024 Fonticons, Inc. --><path d="M96 48H48V96H0V48 0H48 96V48zm32 0V0h96V48H128zM0 128H48v96H0V128zm352 32v48 48 48 48H304 224 208 160V304 256 208 160h48 80 16 48zM160 416h48v48h48v48H208 160V464 416zM352 48V96H304V48H256V0h48 48V48zm64 160V160h48 48v48 48H464V208H416zM96 304v48H48 0V304 256H48v48H96zM288 464h96v48H288V464zm176 48H416V464h48V416h48v48 48H464zm48-128H464V288h48v96zM208 208v96h96V208H208z"/></svg>
